file/xbox.svg

<svg clip-rule="evenodd" fill-rule="evenodd" stroke-linejoin="round" stroke-miterlimit="1.41421" viewBox="0 0 560 400" xmlns="http://www.w3.org/2000/svg"><path d="m93.325 208.114c-15.99-1.525-32.187-7.278-46.12-16.382-11.668-7.625-14.302-10.744-14.302-17.006 0-12.547 13.794-34.544 37.362-59.591 13.402-14.233 32.048-30.916 34.058-30.477 3.928.878 35.283 31.517 47.021 45.912 18.577 22.829 27.127 41.499 22.783 49.817-3.304 6.331-23.753 18.693-38.772 23.429-12.385 3.928-28.652 5.592-42.03 4.298zm437.775-164.114c-34.8 0-59 26.2-59 63.8s24.2 63.8 59 63.8c34.6 0 58.8-26.2 58.8-63.8s-24.2-63.8-58.8-63.8zm101.8 50.2 35.3-47.4h16.3l-43.4 58.1 47.5 64v.1h-16.3l-39.4-53-39.3 53h-16.3l47.4-64-43.3-58.2h16.2zm-323.5 0 35.3-47.4h16.2l-43.3 58.1 47.4 64v.1h-16.3l-39.3-53-39.4 53h-16.3l47.5-64-43.4-58.2h16.3zm112.4-47.4c37.2 0 40.1 25.4 40.1 33.2 0 10.5-5.9 19.6-14.8 24.4 2.8 1.2 5.5 2.9 8.1 5.1 7.1 5.9 10.8 14.1 10.7 23.7 0 22-16.9 35.7-44.1 35.7h-50.1v-57.2h-25.7c1.901-2.701 6.799-9.399 9-12.2h16.7v-52.7zm-404.633 114.894c-9.681-14.88-14.58-29.553-16.96-50.741-.785-7.001-.508-10.998 1.78-25.37 2.842-17.908 13.008-38.611 25.255-51.365 5.221-5.43 5.684-5.569 12.038-3.42 7.717 2.611 15.943 8.295 28.721 19.871l7.463 6.747-4.067 5.014c-18.924 23.245-38.864 56.194-46.374 76.574-4.089 11.068-5.73 22.205-3.974 26.826 1.179 3.119.093 1.964-3.882-4.136zm170.061 2.519c.947-4.668-.254-13.263-3.096-21.928-6.123-18.762-26.665-53.699-45.519-77.428l-5.939-7.464 6.424-5.915c8.387-7.717 14.21-12.339 20.495-16.243 4.968-3.097 12.038-5.823 15.088-5.823 1.872 0 8.48 6.862 13.818 14.372 8.272 11.599 14.349 25.694 17.422 40.343 1.987 9.473 2.149 29.737.323 39.165-1.502 7.74-4.69 17.791-7.787 24.631-2.333 5.106-8.11 15.019-10.651 18.254-1.294 1.617-1.294 1.617-.578-1.964zm343.872-5.513c-26.5 0-45-20.9-45-50.9s18.5-50.9 45-50.9c26.4 0 44.8 20.9 44.8 50.9 0 29.9-18.4 50.9-44.8 50.9zm-109.2-2.6c11.201 0 30.2-3.001 30.2-23.2 0-17.5-16.4-21.2-30.2-21.2h-36.3v44.4zm0-56.7c16.7 0 26.3-7.7 26.3-20.5 0-17-16.5-19.4-26.3-19.4h-36.3v39.9zm-326.865-73.547c-8.711-4.436-22.136-9.173-29.553-10.467-2.611-.439-7.024-.693-9.866-.554-6.123.3-5.846 0 3.974-4.644 8.156-3.859 14.973-6.124 24.215-8.064 10.398-2.196 29.923-2.219 40.159-.047 11.044 2.334 24.053 7.186 31.378 11.692l2.172 1.34-4.991-.254c-9.936-.508-24.4 3.512-39.951 11.091-4.69 2.287-8.757 4.113-9.057 4.043-.278-.046-4.113-1.917-8.48-4.136z" fill="#107c10" fill-rule="nonzero" transform="matrix(.522656 0 0 .522656 100.099 145.38)"/></svg>

<?xml version="1.0" encoding="UTF-8" standalone="no"?>
<!DOCTYPE svg PUBLIC "-//W3C//DTD SVG 1.1//EN" "http://www.w3.org/Graphics/SVG/1.1/DTD/svg11.dtd">
<svg width="100%" height="100%" viewBox="0 0 560 400" version="1.1" xmlns="http://www.w3.org/2000/svg" xmlns:xlink="http://www.w3.org/1999/xlink" xml:space="preserve" xmlns:serif="http://www.serif.com/" style="fill-rule:evenodd;clip-rule:evenodd;stroke-linejoin:round;stroke-miterlimit:1.41421;">
    <g id="path6965" transform="matrix(0.522656,0,0,0.522656,100.099,145.38)">
        <path d="M93.325,208.114C77.335,206.589 61.138,200.836 47.205,191.732C35.537,184.107 32.903,180.988 32.903,174.726C32.903,162.179 46.697,140.182 70.265,115.135C83.667,100.902 102.313,84.219 104.323,84.658C108.251,85.536 139.606,116.175 151.344,130.57C169.921,153.399 178.471,172.069 174.127,180.387C170.823,186.718 150.374,199.08 135.355,203.816C122.97,207.744 106.703,209.408 93.325,208.114ZM531.1,44C496.3,44 472.1,70.2 472.1,107.8C472.1,145.4 496.3,171.6 531.1,171.6C565.7,171.6 589.9,145.4 589.9,107.8C589.9,70.2 565.7,44 531.1,44ZM632.9,94.2L668.2,46.8L684.5,46.8L641.1,104.9L688.6,168.9L688.6,169L672.3,169L632.9,116L593.6,169L577.3,169L624.7,105L581.4,46.8L597.6,46.8L632.9,94.2ZM309.4,94.2L344.7,46.8L360.9,46.8L317.6,104.9L365,168.9L365,169L348.7,169L309.4,116L270,169L253.7,169L301.2,105L257.8,46.8L274.1,46.8L309.4,94.2ZM421.8,46.8C459,46.8 461.9,72.2 461.9,80C461.9,90.5 456,99.6 447.1,104.4C449.9,105.6 452.6,107.3 455.2,109.5C462.3,115.4 466,123.6 465.9,133.2C465.9,155.2 449,168.9 421.8,168.9L371.7,168.9L371.7,111.7L346,111.7C347.901,108.999 352.799,102.301 355,99.5L371.7,99.5L371.7,46.8L421.8,46.8ZM17.167,161.694C7.486,146.814 2.587,132.141 0.207,110.953C-0.578,103.952 -0.301,99.955 1.987,85.583C4.829,67.675 14.995,46.972 27.242,34.218C32.463,28.788 32.926,28.649 39.28,30.798C46.997,33.409 55.223,39.093 68.001,50.669L75.464,57.416L71.397,62.43C52.473,85.675 32.533,118.624 25.023,139.004C20.934,150.072 19.293,161.209 21.049,165.83C22.228,168.949 21.142,167.794 17.167,161.694ZM187.228,164.213C188.175,159.545 186.974,150.95 184.132,142.285C178.009,123.523 157.467,88.586 138.613,64.857L132.674,57.393L139.098,51.478C147.485,43.761 153.308,39.139 159.593,35.235C164.561,32.138 171.631,29.412 174.681,29.412C176.553,29.412 183.161,36.274 188.499,43.784C196.771,55.383 202.848,69.478 205.921,84.127C207.908,93.6 208.07,113.864 206.244,123.292C204.742,131.032 201.554,141.083 198.457,147.923C196.124,153.029 190.347,162.942 187.806,166.177C186.512,167.794 186.512,167.794 187.228,164.213ZM531.1,158.7C504.6,158.7 486.1,137.8 486.1,107.8C486.1,77.8 504.6,56.9 531.1,56.9C557.5,56.9 575.9,77.8 575.9,107.8C575.9,137.7 557.5,158.7 531.1,158.7ZM421.9,156.1C433.101,156.1 452.1,153.099 452.1,132.9C452.1,115.4 435.7,111.7 421.9,111.7L385.6,111.7L385.6,156.1L421.9,156.1ZM421.9,99.4C438.6,99.4 448.2,91.7 448.2,78.9C448.2,61.9 431.7,59.5 421.9,59.5L385.6,59.5L385.6,99.4L421.9,99.4ZM95.035,25.853C86.324,21.417 72.899,16.68 65.482,15.386C62.871,14.947 58.458,14.693 55.616,14.832C49.493,15.132 49.77,14.832 59.59,10.188C67.746,6.329 74.563,4.064 83.805,2.124C94.203,-0.072 113.728,-0.095 123.964,2.077C135.008,4.411 148.017,9.263 155.342,13.769L157.514,15.109L152.523,14.855C142.587,14.347 128.123,18.367 112.572,25.946C107.882,28.233 103.815,30.059 103.515,29.989C103.237,29.943 99.402,28.072 95.035,25.853Z" style="fill:rgb(16,124,16);fill-rule:nonzero;"/>
    </g>
</svg>
